svgs/sharp-solid/compress-wide.svg

<svg xmlns="http://www.w3.org/2000/svg" viewBox="0 0 512 512"><!--! Font Awesome Pro 6.6.0 by @fontawesome - https://fontawesome.com License - https://fontawesome.com/license (Commercial License) Copyright 2024 Fonticons, Inc. --><path d="M160 96l0-32L96 64l0 32 0 64-64 0L0 160l0 64 32 0 96 0 32 0 0-32 0-96zM32 288L0 288l0 64 32 0 64 0 0 64 0 32 64 0 0-32 0-96 0-32-32 0-96 0zM416 96l0-32-64 0 0 32 0 96 0 32 32 0 96 0 32 0 0-64-32 0-64 0 0-64zM384 288l-32 0 0 32 0 96 0 32 64 0 0-32 0-64 64 0 32 0 0-64-32 0-96 0z"/></svg>

<svg xmlns="http://www.w3.org/2000/svg" viewBox="0 0 512 512"><!--! Font Awesome Pro 6.4.2 by @fontawesome - https://fontawesome.com License - https://fontawesome.com/license (Commercial License) Copyright 2023 Fonticons, Inc. --><path d="M160 96V64H96V96v64H32 0v64H32h96 32V192 96zM32 288H0v64H32 96v64 32h64V416 320 288H128 32zM416 96V64H352V96v96 32h32 96 32V160H480 416V96zM384 288H352v32 96 32h64V416 352h64 32V288H480 384z"/></svg>
